X:1
T:Sonatina No. 1
T:Sonatina in C major
T:Op. 20 No. 1
T:F. D. Kuhlau (1786-1832)
T:Public Domain (PianoXML typeset)
T:Public Domain (PianoXML typeset)
T:Public Domain (PianoXML typeset)
T:Public Domain (PianoXML typeset)
T:Public Domain (PianoXML typeset)
T:Public Domain (PianoXML typeset)
T:Public Domain (PianoXML typeset)
T:Public Domain (PianoXML typeset)
C:F. D. Kuhlau
Z:Public Domain (PianoXML typeset)
%%score { ( 1 3 ) | ( 2 4 ) }
L:1/8
Q:1/4=130
M:4/4
K:C
V:1 treble nm="Piano"
V:3 treble 
V:2 treble 
V:4 treble 
V:1
!p!"^Allegro" (c4 e4 | g4- .g)(.g.g.g) |!<(! (g2 c'2!<)!!>(! !>!e'3!>)! .c') | (c'4 .b2) z (b | %4
 !>!d'4 .f2) z (f | !>!e4 .g2) z (e |!<(! ^cdf!<)!e!>(! daf!>)!d | cBdB .G2) z2 | %8
!p! z (G[ce]G [ce]G[ce]G) | z (G[ce]G [ce]G[ce]G) | z (G[df]G [df]G[df]G) | z (G[df]G [df]G[df]G) | %12
!mf! (3z (Gc (3_ecG (3ecG (3ec.G) | (3z (Gc (3_ecG (3ecG (3ec.G) | (3z (Ac (3dcA (3dcA (3dc.A) | %15
 (3z (Ac (3dcA (3dcA (3dcA |!p! .B2) (!>!b4 ag | ^fe^d.e) (!tenuto!e2 =dc | BA^G.A) (Ace.d) | %19
 (!tenuto!d4 .B2) z2 | z!mf! (b!>(!d'c' bag!>)!^f | ^deag ^fe=dc | ^ABed ^cd=c=A | %23
!f! !>!G)!<(!(A/B/ c/d/e/^f/ g/a/b/!<)!a/!>(! g/f/e/!>)!d/ | ^c/d/e/d/ =c/B/A/G/ .^F).F.F.F | %25
!f! !>!G!<(!(A/B/ c/d/e/^f/ g/a/b/!<)!a/!>(! g/f/e/!>)!d/ | ^c/d/e/d/ =c/B/A/G/ .^F).F.F.F | %27
 (!>!GA/B/ c/d/e/^f/ g/!<(!B/c/d/ e/=f/g/a/ | b/d/e/^f/ g/a/b/c'/ d'/g/a/b/ c'/d'/e'/!<)!^f'/ | %29
 g'^f'=f'e' d'c'ba |!>(! g^gba =gfe!>)!(d) :| !tenuto!c2 .B2) z2 (B2 | %32
!>(! !tenuto!d2 .c2)!>)! z2 (c2 |!>(! !tenuto!e2 .d2)!>)! z2 (g2 | %34
!>(! !tenuto!f2 .e2)!>)! z .G.G(.G | !tenuto!c2 .B2) z .B.B(.B | !tenuto!d2 .c2) z .c.c.c | %37
!<(! ed^c!<)!d!>(! g3 f!>)! |!<(! ._e.[ce].[ce].[ce] .[ce].[ce].[ce].[ce] | %39
 .[c_e].[ce].[ce].[ce] .[ce].[ce].[ce].[ce]!<)! | [Bd]4- .[Bd].[Bd].[Bd].[Bd] | %41
 [c_e]4- .[ce].[ce].[ce].[ce] | [Bd]4- .[Bd].[Bd].[Bd].[Bd] | [c_e]4- .[ce].[ce].[ce].[ce] | %44
 .[Bd]2 ([c_e]2 .[Bd]2) ([ce]2 | .[Bd]2)!p! (G/A/B/c/ .d2)!<(! (B/c/d/e/ | %46
 .f2) (g/a/b/c'/ !>!d'2) (b/c'/d'/e'/!<)! | %47
!f! !>!f'/e'/d'/c'/ b/c'/d'/e'/ !>!f'/e'/d'/c'/ b/c'/d'/e'/ | %48
 !>!f'/e'/d'/c'/ b/c'/d'/c'/ b/a/g/f/ e/d/c/B/ |!p! c4 e4 | !>!g4- .g)(.g.g.g) | %51
!<(! (g2 c'2!<)!!>(! !>!e'3!>)! .c') | (c'4 .b2) z (b | !>!d'4 .f2) z (f | e4 .g2) z (e | %55
!<(! ^cdf!<)!e!>(! dae!>)!d | cBdB .G2) z2 | z (G[ce]G [ce]G[ce]G) | z (G[ce]G [ce]G[ce]G) | %59
 z (G[df]G [df]G[df]G) | z (G[df]G [df]G[df]G) |!p! (3z (Gc (3_ecG (3ecG (3ec.G) | %62
 (3z (Gc (3_ecG (3ecG (3ec.G) | (3z (Gd (3fdG (3fdG (3fd.G) | (3z (Gd (3fdG (3fdG (3fdG | %65
!p! .e2) (!>!e'4 d'c' | ba^g.a a2 gf | ed^c.d) (dfag) | (g4 .e2) z2 | %69
 z!mf! (e'!>(!g'f' e'd'c'!>)!b | !tenuto!^gad'c' ba=gf | !tenuto!^deag ^fg=f=d | %72
!f! (!>!c)!<(!d/e/ f/g/a/b/ c'/d'/e'/!<)!d'/!>(! c'/b/a/!>)!g/ | %73
 !tenuto!^f/g/a/g/ =f/e/d/c/ .B).B.B.B | %74
 (!>!cd/e/!<(! f/g/a/b/ c'/d'/!<)!e'/!>(!d'/ c'/b/a/g/!>)! | ^f/g/a/g/ =f/e/d/c/ .B).B.B.B | %76
 (!>!cd/e/ f/g/a/b/!<(! !>!c'/e/f/g/ a/b/c'/d'/!<)! | %77
!8va(! !>!e'/g/a/b/ c'/d'/e'/f'/ !>!g'/c'/d'/e'/ f'/g'/a'/b'/!8va)! | .c'2) z2 .[EGc]2!ff! z2 | %79
[K:bass] .[E,G,C]2 z2 z4 |][K:F][M:6/8][K:treble]!p![Q:1/4=52]"^Andante" F/>A/ | %81
 .c.c.c (!tenuto!cfA |!>(! !>!c>=Bd/c/!>)! _B2) (!>!b/>g/ | .e2) (!>!g/>e/ .c2) (!>!d/>B/ | %84
 (!tenuto!G2) ^G .A2) z | z2!pp!!<(! ([FA]- [FA][EG][^FA]!<)! | c2 B A2) a/>g/ | %87
 f7/4e/<d/c/4 =B7/4a/<g/B/4 |!pp! c(.[Ec].[Ec]) [Ec]2 ::!p! ([CE]/>[DF]/ | %90
!<(! !tenuto![EG]2) ([EG]/>[FA]/ !tenuto![GB]2) ([GB]/>[Ac]/!<)! | %91
!>(! !tenuto![Bd]2) [GB] [EG]2!>)! [Be] | %92
!f! !tenuto![_Af]!tenuto![Af]!tenuto![Af] !tenuto![F=B]!tenuto![FB]!tenuto![FB] | %93
 !tenuto![Ec]!tenuto!c/>=B/c/>B/ c/>!>(!B/c/>B/c/>B/!>)! |!p! .c.c.c !tenuto!cfA | %95
!>(! c>=Bd/c/ _B2!>)! .A | %96
!p!!<(! G/4^F/4A/4G/4 B/4A/4c/4B/4 d/4^c/4!<)!e/4d/4 (!>!=F2!>(! (A/>)G/!>)! | %97
!pp! .F).[A,F].[A,F] [A,F]2 :|[K:C][M:2/4][Q:1/4=110]"^Allegro""^Rondo"!p! (e/f/ | %99
 !tenuto!g>)(g ^f/g/a/g/ | !tenuto!e>)(e ^d/e/f/e/ | !tenuto!c>)(c d/c/B/c/ | %102
!>(! !tenuto!^c2 .d)!>)! (d/e/ | !tenuto!f>)(f e/f/g/f/ | !tenuto!d>)(d ^c/d/e/d/ | %105
 .B).[Bg].[Bg].[Bg] | (([Bg]2 .c))!f! (e/f/ | !tenuto!g>)(g ^f/g/a/g/ | !tenuto!e>)(e ^d/e/f/e/ | %109
 !tenuto!c>)(c d/c/B/c/ |!>(! !tenuto!^c2 .d)!>)! (d/e/ | !tenuto!f>)(f e/f/g/f/ | %112
 !tenuto!d>)(d ^c/d/e/d/ | .B).[Bg].[Bg].[Bg] | c2 z (!>!e'/d'/ | c'/b/a/g/ ^f/g/a/g/ | %116
 f/e/d/c/!<(! B/c/d/e/!<)! |!f! .f).[Bf].[Bf].[Bf] |!>(! (([Bf]2 .[ce]))!>)! (!>!c'/b/ | %119
 a/g/f/e/ ^d/e/f/e/ | d/c/B/A/!<(! ^G/A/B/c/!<)! |!f! .d).[^Gd].[Gd].[Gd] | %122
!>(! (([^Gd]2 .[Ac]))!>)! (!>!e/d/ | c/B/A/G/ ^F/G/A/F/ | G/A/B/c/ d/e/^f/g/) | %125
 (^f/g/a/b/ c'/a/g/f/ | g/a/b/a/ g/^f/e/d/ | c/B/A/G/ ^F/G/A/F/ | G/A/B/c/ d/e/^f/g/) | %129
 (^f/g/a/b/ c'/a/g/f/ | g/a/b/g/ ^f/g/a/f/ | g/a/b/g/ ^f/g/a/f/ |!>(! .g)(!>!g/^f/ g/f/g/f/ | %133
 g/^f/g/f/ g/=f/e/f/)!>)! |!p! !tenuto!g>(g ^f/g/a/g/ | !tenuto!e>)(e ^d/e/f/e/ | %136
 !tenuto!c>)(c d/c/B/c/ |!>(! !>!^c2 .d)!>)! (d/e/ | !tenuto!f>)(f e/f/g/f/ | %139
 !tenuto!d>)(d ^c/d/e/d/ | .B).[Bg].[Bg].[Bg] | (([Bg]2 .c))!f! (e/f/ | !>!g>)(g ^f/g/a/g/ | %143
 !>!e>)(e ^d/e/f/e/ | !>!c>)(c d/c/B/c/ |!>(! !tenuto!^c2 .d)!>)! (d/e/ | !tenuto!f>)(f e/f/g/f/ | %147
 !tenuto!d>)(d ^c/d/e/d/ | .B).[Bg].[Bg].[Bg] | c2 z!p! (e'/^d'/ | .e')(e'/d'/ .c')(c'/b/ | %151
 !tenuto!a3 ^g/a/ | .b).b.b.b | (!tenuto!c'/d'/c'/b/ .a)(e'/^d'/ | .e')(e'/d'/ .c')(c'/b/ | %155
 !tenuto!a2- .a/)(a/b/a/ | .g/)(g/a/g/ .^f/)(f/g/f/ | e2) z (E/^F/ | .^G)(G/A/ .B)(B/c/ | %159
 !tenuto!d/c/B/A/ .^G)(!>!G | .A)(A/B/ .c)(c/d/ | .e).e .e(e/^f/ | .^g)(g/a/ .b)(b/c'/ | %163
 !tenuto!d'/c'/b/a/ .^g)(!>!g | .a)(a/b/ .c')(c'/d'/ | .e')(e'/^d'/ e'/d'/e'/d'/ | %166
 .e')(e'/d'/ .c')(c'/b/ | !tenuto!a3 ^g/a/ | .b).b.b.b | (!tenuto!c'/d'/c'/b/ .a)(e'/^d'/ | %170
!f! .e'/)e'/(!>!a'/g'/ f'/e'/d'/c'/ | b/a/g/f/ e/d/c/B/ | A/B/c/A/ ^G/A/B/G/ | A2) z!p! (e/d/ | %174
 c2) z (c/B/ | A2) z (a/g/ | f2) z (f/e/ | d2) z (f'/e'/ | !>!d'/^c'/e'/d'/ !>!=c'/!<(!b/d'/c'/ | %179
 !>!b/^a/c'/b/ !>!=a/^f/b/a/ | !>!g/^f/a/g/ !>!=f/e/d/c/ | !>!B/c/^c/d/ !>!^d/e/f/^f/!<)! | %182
!p! !tenuto!g>)(g ^f/g/a/g/ | !tenuto!e>)(e ^d/e/f/e/ | c>)(c d/c/B/c/ |!>(! !>!^c2 .d)!>)! (d/e/ | %186
 !tenuto!f>)(f e/f/g/f/ | !tenuto!d>)(d ^c/d/e/d/ | .B).[Bg].[Bg].[Bg] | (([Bg]2 .c))!f! (e/f/ | %190
 !>!g>)(g ^f/g/a/g/ | !>!e>)(e ^d/e/f/e/ | !>!c>)(c d/c/B/c/ |!>(! ^c2 .d)!>)! (d/e/ | %194
 !>!f>)(f e/f/g/f/ | !>!d>)(d ^c/d/e/d/ | .B).[Bg].[Bg].[Bg] | c2 z (e'/d'/ | c'/b/a/g/ ^f/g/a/g/ | %199
 f/e/d/c/!<(! B/c/d/e/!<)! |!f! .f).[Bf].[Bf].[Bf] | (([Bf]2 .[ce])) (c'/b/ | a/g/f/e/ ^d/e/f/e/ | %203
 d/c/B/A/!<(! ^G/A/B/c/!<)! |!f! .d).[^Gd].[Gd].[Gd] | (([^Gd]2 .[Ac])) (!>!e/d/ | %206
 c/B/A/G/ ^F/G/A/F/ | G/A/B/c/ d/e/^f/g/) | (^f/g/a/b/ c'/a/g/f/ | g/a/b/a/ g/^f/e/d/ | %210
 c/B/A/G/ ^F/G/A/F/ | G/A/B/c/ d/e/^f/g/ | ^f/g/a/b/ c'/a/g/f/ | g/a/b/g/ ^f/g/a/f/ | %214
 g/a/b/g/ ^f/g/a/f/ | .g)!>(!(g/^f/ g/f/g/f/ | g/^f/g/f/ g/=f/e/f/!>)! | %217
!p! !tenuto!g>)(g ^f/g/a/g/ | !tenuto!e>)(e ^d/e/f/e/ | !tenuto!c>)(c d/c/B/c/ | %220
!>(! !>!^c2 .d)!>)! (d/e/ | !tenuto!f>)(f e/f/g/f/ | d>)(d!<(! ^c/d/e/d/!<)! | %223
!f! .B).[Bg].[Bg].[Bg] | (([Bg]2 .c)) (e/f/ | !>!g>)(g ^f/g/a/g/ | !>!e>)(e ^d/e/f/e/ | %227
 !>!c>)(c d/c/B/c/ |!>(! ^c2 .d)!>)! (d/e/ | !>!f>)(f e/f/g/f/ | !>!d>)(d ^c/d/e/d/ | %231
 .B).[Bg].[Bg].[Bg] | .c (c/B/ A/G/F/E/ | D/C/B,/A,/ G,/A,/B,/G,/ | .C) (e/d/!<(! c/B/A/G/ | %235
 F/E/D/C/!<)! B,/C/D/B,/ | .C)!f! (g/f/ e/d/c/B/ | A/G/F/E/ D/C/B,/A,/ | .G,) z .[CE] z | %239
 .[CD] z .[B,G] z | .[CE]!p! (c'/b/ a/g/f/e/ | d/c/B/A/ G/A/B/G/ | .c)!<(! (e'/d'/ c'/b/a/g/ | %243
 f/e/d/c/!<)! B/c/d/B/ | .c)!f! (g'/f'/ e'/d'/c'/b/ | a/g/f/e/ d/c/B/A/ | .G) z .[ce] z | %247
 .[cd] z .[Bg] z | .[ce]2 z (e/f/ | !tenuto!g>)(g ^f/g/a/g/ | c'2) z (e/f/ | %251
 !tenuto!g>)(g ^f/g/a/g/ | .c/)!<(!(c/d/e/ f/g/a/b/ | .c'/)(c'/d'/e'/ f'/g'/a'/b'/!<)! | %254
 !>!c''2) .[cegc']2 | .[cegc']2 z2 |] %256
V:2
 (CGEG CGEG) | (CGEG CGEG) | (CGEG CGEG) | (DGFG DGFG) | (B,GDG B,GDG) | (CGEG CGEG) | ([FA]8 | %7
 .G2) z2 z[K:bass]!mf! (G,,A,,B,, | !tenuto!C,4 E,4 | !>!G,8 | !tenuto!B,,4 D,4 | !>!G,8) | %12
!f! !>![C,,C,]4 [_E,,_E,]4 | [G,,G,]8 | !>![^F,,^F,]4 [A,,A,]4 | ([D,D]8 |!pp! G,)(DB,D G,DB,(D) | %17
 G,)ECE G,EC(E | ^F,)DCD F,DC(D | G,)DB,D G,DB,(D |!p! (G,8) | C8 | D4 D,4 | .G,2) z2 z4 | %24
 z4 z .[D,A,C].[D,A,C].[D,A,C] | .[G,B,]2 z2 z4 | z4 z .[D,A,C].[D,A,C].[D,A,C] | .[G,B,]2 z2 z4 | %28
 .[E,G,B,]2 z2 .[E,G,B,]2 z2 | .[E,G,B,]2 z2 z4 | z8 :|!pp! (G,FDF G,FD(F) | G,)ECE G,EC(E | %33
 G,)DB,D G,DB,(D | G,)DB,D G,DB,(D | G,)ECE G,EC(E | G,)FDF G,FD(F | G,)DB,D G,DB,(D | %38
 [_A,C]4) !>![_A,,A,]4 | !>![G,,G,]4 !>![^F,,^F,]4 | %40
!f!!<(! (G,,A,,/B,,/ C,/D,/E,/^F,/ .G,2)!<)! z2 |!<(! (C,D,/_E,/ F,/G,/A,/B,/ .C2)!<)! z2 | %42
!<(! (G,A,/B,/ C/D/E/^F/ .G2)!<)! z2 |!<(! (C,D,/_E,/ F,/G,/A,/B,/ .C2)!<)! z2 | %44
 .G,2 (C,/D,/_E,/F,/ .G,2) (C,/D,/E,/F,/ | .G,2) z2 .[G,B,D]2 z2 | .[G,B,D]2 z2 .[G,B,D]2 z2 | %47
 [G,B,D]8- | .[G,B,D]2 z2 z4 |[K:treble]!pp! (CGEG CGE(G) | C)GEG CGE(G | C)GEG CGE(G | %52
 D)GFG DGF(G | B,)GDG B,GD(G | C)GEG CGE(G | ([FA]8) | .G2) z2 z[K:bass] (G,,A,,B,, | %57
!p! !tenuto!C,4 E,4 | !>!G,8 | !tenuto!B,,4 D,4 | !>!G,8) |!mf! !>![C,,C,]4 [_E,,_E,]4 | [G,,G,]8 | %63
 !>![B,,,B,,]4 [D,,D,]4 | [G,,G,]8 |[K:treble]!pp! (CGEG CGE(G) | C)AFA CAF(A | B,)GFG B,GF(G | %68
 C)GEG CGE(G | (C8) | F8 | G4[K:bass] G,4 | .C2) z2 z4 | z4 z .[G,DF].[G,DF].[G,DF] | %74
 .[CE]2 z2 z4 | z4 z .[G,DF].[G,DF].[G,DF] | .[CE]2 z2 z4 |[K:treble] .[CEG]2 z2 .[CEG]2 z2 | %78
 .[CEG]2 z2[K:bass] .[C,C]2 z2 | .[C,,C,]2 z2 z4 |][K:F][M:6/8] z | %81
 z .[F,A,C].[F,A,C] .[F,A,C].[F,A,C].[F,A,C] | [E,G,C]3- .[E,G,C]2 z | %83
 (.[G,B,C].[G,B,C]) z (.[G,B,C].[G,B,C]) z | z (.[G,B,C].[G,B,C]) .[F,A,C]2 (F,,/>A,,/ | %85
 .C,).C,.C, (!tenuto!C,B,,A,, |!>(! G,,2 C, .F,,2)!>)! z | %87
[K:treble] (.[FA].[FA]) z (.[G,F].[G,F]) z |[K:bass] [CE](.[C,C].[C,C]) [C,C]2 :: z | %90
 z [C,C]2 z [C,C]2 | z (.[C,C].[C,C]) [C,C]3 | %92
 !tenuto![_D,_D]!tenuto![D,D]!tenuto![D,D] !tenuto![D,D]!tenuto![D,D]!tenuto![D,D] | %93
 !tenuto![C,C](.[CEG].[CEG]) [CEG]2 z | z (.[F,A,C].[F,A,C] .[F,A,C].[F,A,C].[F,A,C]) | %95
 [E,G,C]3- [E,G,C]2 .[F,C] | [B,D]3 z ([C,A,](([C,B,]) | .[F,A,]))(.[F,,F,].[F,,F,]) [F,,F,]2 :| %98
[K:C][M:2/4][K:treble] z | .[CEG].[CEG] z2 | .[CEG].[CEG] z2 | z .[CEG].[CEG].[CEG] | %102
 [B,FG]2- .[B,FG] z | .[B,DG].[B,DG] z2 | .[B,FG].[B,FG] z2 |[K:bass] z .[G,DF].[G,DF].[G,DF] | %106
 (([G,DF]2 .[CE])) z | (C,/G,/E,/G,/ C,/G,/E,/(G,/) | C,/)G,/E,/G,/ C,/G,/E,/(G,/ | %109
 C,/)G,/E,/G,/ C,/G,/E,/(G,/ | B,,/)G,/F,/G,/ B,,/G,/F,/(G,/ | B,,/)G,/D,/G,/ B,,/G,/D,/(G,/ | %112
 B,,/)G,/F,/G,/ B,,/G,/F,/(G,/ | G,,/)F,/D,/F,/ G,,/F,/D,/(F,/ | (C,/)E,/G,/C/ .C,) z | z4 | z4 | %117
 z .[G,D].[G,D].[G,D] | (([G,D]2 .[CE])) z | z4 | z4 | z .[E,B,].[E,B,].[E,B,] | %122
 (([E,B,]2 .[A,C])) z | (([D,A,C]4 | .[G,B,]2)) z2 |[K:treble] (([DAc]4 | .[GB]2)) z2 | %127
[K:bass] (([D,A,C]4 | .[G,B,]2)) z2 |[K:treble] (([DAc]4 | .[GB])) z .[DAc] z | .[GB] z .[DAc] z | %132
 .[GB] z2 z | z2 z z | .[CEG].[CEG] z2 | .[CEG].[CEG] z2 | z .[CEG].[CEG].[CEG] | %137
 [B,FG]2- .[B,FG] z | .[B,DG].[B,DG] z2 | .[B,FG].[B,FG] z2 |[K:bass] z .[G,DF].[G,DF].[G,DF] | %141
 (([G,DF]2 .[CE])) z | (C,/G,/E,/G,/ C,/G,/E,/(G,/) | C,/)G,/E,/G,/ C,/G,/E,/(G,/ | %144
 C,/)G,/E,/G,/ C,/G,/E,/(G,/ | B,,/)G,/F,/G,/ B,,/G,/F,/(G,/ | B,,/)G,/D,/G,/ B,,/G,/D,/(G,/ | %147
 B,,/)G,/F,/G,/ B,,/G,/F,/(G,/ | G,,/)F,/D,/F,/ G,,/F,/D,/(F,/ | (C,/)E,/G,/C/ .C,) z | %150
!pp! A,.[CE].[CE].[CE] | A,.[CE].[CE].[CE] | ^G,.[DE].[DE].[DE] | A,.[CE].[CE].[CE] | %154
 A,.[CE].[CE].[CE] | A,.[CE].[CE].[CE] | .[B,E] z .[B,^D] z | z/ (E/^D/E/ .E,) z | %158
 E,.[B,=D].[B,D].[B,D] | E,.[B,D].[B,D].[B,D] | E,.[A,C].[A,C].[A,C] | E,.[^G,B,].[G,B,].[G,B,] | %162
 E,.[B,D].[B,D].[B,D] | E,.[B,D].[B,D].[B,D] | E,.[A,C].[A,C].[A,C] | .[E,^G,B,]2 z2 | %166
 A,.[CE].[CE].[CE] | A,.[CE].[CE].[CE] | ^G,.[DE].[DE].[DE] | A,.[CE].[CE].[CE] | (!>!A,4 | [DF]4 | %172
 .E) z .E, z | z/ (A,/^G,/A,/ A,,) z | z .[A,CE] .[A,CE] z | z .[A,CE] .[A,CE] z | %176
[K:treble] z (.[B,DG] .[B,DG]) z | z (.[B,FG] .[B,FG]) z | z4 | z4 | z4 | z4 | .[CEG].[CEG] z2 | %183
 .[CEG].[CEG] z2 | z .[CEG].[CEG].[CEG] | [B,FG]2- .[B,FG] z | .[B,DG].[B,DG] z2 | %187
 .[B,FG].[B,FG] z2 |[K:bass] z .[G,DF].[G,DF].[G,DF] | (([G,DF]2 .[CE])) z | %190
 C,/G,/E,/G,/ C,/G,/E,/(G,/ | C,/)G,/E,/G,/ C,/G,/E,/(G,/ | C,/)G,/E,/G,/ C,/G,/E,/(G,/ | %193
 B,,/)G,/F,/G,/ B,,/G,/F,/(G,/ | B,,/)G,/D,/G,/ B,,/G,/D,/(G,/ | B,,/)G,/F,/G,/ B,,/G,/F,/(G,/ | %196
 G,,/)F,/D,/F,/ G,,/F,/D,/(F,/ | (C,/)E,/G,/C/ .C,) z | z4 | z4 | z .[G,D].[G,D].[G,D] | %201
 (([G,D]2 .[CE])) z | z4 | z4 | z .[E,B,].[E,B,].[E,B,] | (([E,B,]2 .[A,C])) z | (([D,A,C]4 | %207
 .[G,B,]2)) z2 |[K:treble] (([DAc]4 | .[GB]2)) z2 |[K:bass] (([D,A,C]4 | .[G,B,]2)) z2 | %212
[K:treble] (([DAc]4 | .[GB])) z .[DAc] z | .[GB] z .[DAc] z | .[GB] z2 z | z4 | .[CEG].[CEG] z2 | %218
 .[CEG].[CEG] z2 | z .[CEG].[CEG].[CEG] | [B,FG]2- .[B,FG] z | .[B,DG].[B,DG] z2 | %222
 .[B,FG].[B,FG] z2 |[K:bass] z .[G,DF].[G,DF].[G,DF] | (([G,DF]2 .[CE])) z | %225
 (C,/G,/E,/G,/ C,/G,/E,/(G,/) | C,/)G,/E,/G,/ C,/G,/E,/(G,/ | C,/)G,/E,/G,/ C,/G,/E,/(G,/ | %228
 B,,/)G,/F,/G,/ B,,/G,/F,/(G,/ | B,,/)G,/D,/(G,/ B,,/)G,/D,/(G,/ | %230
 B,,/)G,/F,/(G,/ B,,/)G,/F,/(G,/ | G,,/)F,/D,/F,/ G,,/F,/D,/(F,/ | .[C,E,]) z2 z | %233
 z2 ((!tenuto![G,,D,]2 | .[C,E,])) z2 z | z2 ((!>![G,,D,]2 | .[C,E,])) z2 z | z4 | %238
 z2 (G,/^F,/G,/F,/ | G,/^F,/G,/F,/ G,/=F,/E,/D,/ | .C,) z2 z | z2 ((!tenuto![G,D]2 | .[CE])) z2 z | %243
 z2 (([G,D]2 | .[CE])) z2 z | z4 |[K:treble] z2 G/^F/G/F/ | G/^F/G/F/ G/=F/E/D/ | C2 z2 | [B,FG]4 | %250
 [CEG]2 z2 | [B,FG]4 | .[CEG]2 z2 | .[CEG]2 z2 | .[CEG]2[K:bass] .[C,C]2 | .[C,,C,]2 z2 |] %256
V:3
 x8 | x8 | x8 | x8 | x8 | x8 | x8 | x8 | x8 | x8 | x8 | x8 | x8 | x8 | x8 | x8 | x8 | x8 | x8 | %19
 x8 | x8 | x8 | x8 | x8 | x8 | x8 | x8 | x8 | x8 | x8 | x8 :| x8 | x8 | x8 | x8 | x8 | x8 | x8 | %38
 x8 | x8 | x8 | x8 | x8 | x8 | x8 | x8 | x8 | x8 | x8 | x8 | x8 | x8 | x8 | x8 | x8 | x8 | x8 | %57
 x8 | x8 | x8 | x8 | x8 | x8 | x8 | x8 | x8 | x8 | x8 | x8 | x8 | x8 | x8 | x8 | x8 | x8 | x8 | %76
 x8 |!8va(! x8!8va)! | x8 |[K:bass] x8 |][K:F][M:6/8][K:treble] x | x6 | x6 | x6 | x6 | x6 | %86
 (GDE .F2) x | x6 | x5 :: x | x6 | x6 | x6 | x6 | x6 | x6 | x4 x E | x5 :|[K:C][M:2/4] x | x4 | %100
 x4 | x4 | x4 | x4 | x4 | x4 | x4 | x4 | x4 | x4 | x4 | x4 | x4 | x4 | x4 | x4 | x4 | x4 | x4 | %119
 x4 | x4 | x4 | x4 | x4 | x4 | x4 | x4 | x4 | x4 | x4 | x4 | x4 | x4 | x4 | x4 | x4 | x4 | x4 | %138
 x4 | x4 | x4 | x4 | x4 | x4 | x4 | x4 | x4 | x4 | x4 | x4 | x4 | x4 | x4 | x4 | x4 | x4 | x4 | %157
 x4 | x4 | x4 | x4 | x4 | x4 | x4 | x4 | x4 | x4 | x4 | x4 | x4 | x4 | x4 | x4 | x4 | x4 | x4 | %176
 x4 | x4 | x4 | x4 | x4 | x4 | x4 | x4 | x4 | x4 | x4 | x4 | x4 | x4 | x4 | x4 | x4 | x4 | x4 | %195
 x4 | x4 | x4 | x4 | x4 | x4 | x4 | x4 | x4 | x4 | x4 | x4 | x4 | x4 | x4 | x4 | x4 | x4 | x4 | %214
 x4 | x4 | x4 | x4 | x4 | x4 | x4 | x4 | x4 | x4 | x4 | x4 | x4 | x4 | x4 | x4 | x4 | x4 | x4 | %233
 x4 | x4 | x4 | x4 | x4 | x4 | x4 | x4 | x4 | x4 | x4 | x4 | x4 | x4 | x4 | x4 | x4 | x4 | x4 | %252
 x4 | x4 | x4 | x4 |] %256
V:4
 x8 | x8 | x8 | x8 | x8 | x8 | x8 | x5[K:bass] x3 | x8 | x8 | x8 | x8 | x8 | x8 | x8 | x8 | x8 | %17
 x8 | x8 | x8 | x8 | x8 | x8 | x8 | x8 | x8 | x8 | x8 | x8 | x8 | x8 :| x8 | x8 | x8 | x8 | x8 | %36
 x8 | x8 | x8 | x8 | x8 | x8 | x8 | x8 | x8 | x8 | x8 | x8 | x8 |[K:treble] x8 | x8 | x8 | x8 | %53
 x8 | x8 | x8 | x5[K:bass] x3 | x8 | x8 | x8 | x8 | x8 | x8 | x8 | x8 |[K:treble] x8 | x8 | x8 | %68
 x8 | x8 | x8 | x4[K:bass] x4 | x8 | x8 | x8 | x8 | x8 |[K:treble] x8 | x4[K:bass] x4 | x8 |] %80
[K:F][M:6/8] x | x6 | x6 | x6 | x6 | x6 | x6 |[K:treble] x6 |[K:bass] x5 :: x | x6 | x6 | x6 | x6 | %94
 x6 | x6 | x6 | x5 :|[K:C][M:2/4][K:treble] x | x4 | x4 | x4 | x4 | x4 | x4 |[K:bass] x4 | x4 | %107
 x4 | x4 | x4 | x4 | x4 | x4 | x4 | x4 | x4 | x4 | x4 | x4 | x4 | x4 | x4 | x4 | x4 | x4 | %125
[K:treble] x4 | x4 |[K:bass] x4 | x4 |[K:treble] x4 | x4 | x4 | x4 | x4 | x4 | x4 | x4 | x4 | x4 | %139
 x4 |[K:bass] x4 | x4 | x4 | x4 | x4 | x4 | x4 | x4 | x4 | x4 | A,4 | A,4 | ^G,4 | A,4 | A,4 | %155
 A,4 | x4 | x4 | E,4 | E,4 | E,4 | E,4 | E,4 | E,4 | E,4 | x4 | A,4 | A,4 | ^G,4 | A,4 | x4 | x4 | %172
 x4 | x4 | x4 | x4 |[K:treble] x4 | x4 | x4 | x4 | x4 | x4 | x4 | x4 | x4 | x4 | x4 | x4 | %188
[K:bass] x4 | x4 | x4 | x4 | x4 | x4 | x4 | x4 | x4 | x4 | x4 | x4 | x4 | x4 | x4 | x4 | x4 | x4 | %206
 x4 | x4 |[K:treble] x4 | x4 |[K:bass] x4 | x4 |[K:treble] x4 | x4 | x4 | x4 | x4 | x4 | x4 | x4 | %220
 x4 | x4 | x4 |[K:bass] x4 | x4 | x4 | x4 | x4 | x4 | x4 | x4 | x4 | x4 | x4 | x4 | x4 | x4 | x4 | %238
 x4 | x4 | x4 | x4 | x4 | x4 | x4 | x4 |[K:treble] x4 | x4 | x4 | x4 | x4 | x4 | x4 | x4 | %254
 x2[K:bass] x2 | x4 |] %256

